svgs/light/house-person-return.svg

<svg xmlns="http://www.w3.org/2000/svg" viewBox="0 0 640 512"><!--! Font Awesome Pro 6.3.0 by @fontawesome - https://fontawesome.com License - https://fontawesome.com/license (Commercial License) Copyright 2023 Fonticons, Inc. --><path d="M181.4 160c-11.88 0-21.38 9.625-21.38 21.38v85.25c0 11.75 9.625 21.38 21.38 21.38h85.25c11.75 0 21.38-9.5 21.38-21.38V181.4c0-11.88-9.625-21.38-21.38-21.38H181.4zM255.1 256h-64v-64h64V256zM340.7 107.3c6.477-6.479 6.186-17.07-.6406-23.18L250.5 4.031c-6-5.25-15-5.25-21 0l-224 196c-6.625 5.875-7.375 15.88-1.5 22.62c5.75 6.625 15.88 7.25 22.5 1.5l37.5-32.88l.0098 176.7c0 26.51 21.49 48 48 48l176.1 .0156C296.9 416 304 408.9 304 400.1s-7.146-16.04-15.96-16.04H111.1c-8.836 0-16-7.162-15.1-16L96 163.4l143.1-126.1l78.73 70.66C325 113.6 334.7 113.3 340.7 107.3zM424 112C454.9 112 480 86.88 480 56S454.9 0 424 0s-56 25.12-56 56S393.1 112 424 112zM424 32c13.23 0 24 10.77 24 24s-10.77 24-24 24s-24-10.77-24-24S410.8 32 424 32zM634.6 484.1l-69.75-62.19l-21.87-59.41c-3.078-8.297-12.27-12.52-20.55-9.484c-8.297 3.062-12.53 12.25-9.484 20.55l23.27 63.16c.9062 2.469 2.406 4.672 4.375 6.406l72.73 64.84C616.4 510.7 620.2 512 623.1 512c4.391 0 8.781-1.812 11.94-5.359C641.8 500 641.2 489.9 634.6 484.1zM533.7 244.6L513.5 164.1c5.244 .9121 10.48 1.975 15.45 3.963l26.72 10.69c14.27 5.703 25.02 18.02 28.75 32.92l8.062 32.25c2.156 8.578 10.89 13.72 19.39 11.64c8.578-2.141 13.8-10.83 11.64-19.39l-8.062-32.25c-6.203-24.86-24.11-45.38-47.91-54.89l-26.72-10.69c-17.56-7.016-36.72-9.312-55.5-6.656l-46.37 6.625c-31.33 4.469-54.95 31.72-54.95 63.36V232l-57.59 43.2C319.3 280.5 317.9 290.5 323.2 297.6C326.3 301.8 331.1 304 336 304c3.344 0 6.703-1.047 9.578-3.203l63.1-48C413.6 249.8 416 245 416 240V201.6c0-15.83 11.81-29.44 27.48-31.67l37.19-5.312l21.93 87.7c4.484 18.02-1.922 37.22-16.33 48.92l-79.11 64.23c-8.375 6.781-14.28 16.33-16.62 26.88l-22.17 100.2c-1.906 8.625 3.531 17.17 12.17 19.08C381.7 511.9 382.9 512 384 512c7.344 0 13.95-5.078 15.61-12.55l22.17-100.2c.7813-3.5 2.734-6.688 5.531-8.953l79.12-64.23C530.5 306.6 541.1 274.6 533.7 244.6z"/></svg>

<svg xmlns="http://www.w3.org/2000/svg" viewBox="0 0 640 512"><!-- Font Awesome Pro 6.0.0-alpha2 by @fontawesome - https://fontawesome.com License - https://fontawesome.com/license (Commercial License) --><path d="M181.352 160.031C169.477 160.031 159.977 169.656 159.977 181.406V266.656C159.977 278.406 169.602 288.031 181.352 288.031H266.602C278.352 288.031 287.977 278.531 287.977 266.656V181.406C287.977 169.531 278.352 160.031 266.602 160.031H181.352ZM255.977 256.031H191.977V192.031H255.977V256.031ZM340.653 107.346H340.655C347.132 100.867 346.839 90.277 340.013 84.166L250.477 4.031C244.477 -1.219 235.477 -1.219 229.477 4.031L5.475 200.031C-1.15 205.906 -1.9 215.906 3.975 222.656C9.725 229.281 19.85 229.906 26.475 224.156L63.977 191.281V368.031C63.977 394.541 85.468 416.031 111.977 416.031H288.04C296.854 416.031 304.001 408.887 304.001 400.072V399.992C304.001 391.178 296.854 384.031 288.04 384.031H111.975C103.139 384.031 95.975 376.869 95.977 368.031L96.001 163.354L239.977 37.281L318.708 107.938C325.018 113.602 334.657 113.342 340.653 107.346ZM424.003 112C454.878 112 480.001 86.875 480.001 56S454.878 0 424.003 0S368.003 25.125 368.003 56S393.128 112 424.003 112ZM424.003 32C437.237 32 448.003 42.766 448.003 56S437.237 80 424.003 80S400.003 69.234 400.003 56S410.768 32 424.003 32ZM634.639 484.062L564.889 421.875L543.016 362.469C539.938 354.172 530.751 349.953 522.47 352.984C514.173 356.047 509.938 365.234 512.985 373.531L536.251 436.687C537.157 439.156 538.657 441.359 540.626 443.094L613.358 507.937C616.405 510.656 620.202 512 623.999 512C628.389 512 632.78 510.188 635.936 506.641C641.825 500.047 641.247 489.938 634.639 484.062ZM533.657 244.594L513.501 164.053C518.745 164.965 523.985 166.027 528.954 168.016L555.671 178.703C569.936 184.406 580.686 196.719 584.421 211.625L592.483 243.875C594.639 252.453 603.374 257.594 611.874 255.516C620.452 253.375 625.671 244.687 623.514 236.125L615.452 203.875C609.249 179.016 591.343 158.5 567.546 148.984L540.829 138.297C523.266 131.281 504.11 128.984 485.329 131.641L438.956 138.266C407.628 142.734 384.003 169.984 384.003 201.625V232L326.411 275.203C319.333 280.5 317.895 290.531 323.208 297.594C326.348 301.797 331.145 304 336.02 304C339.364 304 342.723 302.953 345.598 300.797L409.596 252.797C413.628 249.781 416.003 245.031 416.003 240V201.625C416.003 185.797 427.815 172.187 443.487 169.953L480.677 164.641L502.61 252.344C507.095 270.359 500.688 289.562 486.282 301.266L407.175 365.5C398.8 372.281 392.893 381.828 390.55 392.375L368.378 492.547C366.471 501.172 371.909 509.719 380.55 511.625C381.706 511.875 382.878 512 384.018 512C391.362 512 397.971 506.922 399.628 499.453L421.8 399.297C422.581 395.797 424.534 392.609 427.331 390.344L506.454 326.109C530.47 306.609 541.141 274.625 533.657 244.594Z"/></svg>
